X: 21214
T: Les SOUVENIRS QUADRILLES No. 3. La Poule.
P: Le jour du plaisir.
%R: jig
B: W. Hamilton "Universal Tune-Book" Vol. 2 Glasgow 1846 p.121 #1
S: http://s3-eu-west-1.amazonaws.com/itma.dl.printmaterial/book_pdfs/hamiltonvol2web.pdf
Z: 2016 John Chambers <jc:trillian.mit.edu>
M: 6/8
L: 1/8
K: G
% - - - - - - - - - - - - - - - - - - - - - - - - -
G/A/ !segno!|\
B3 cBc | dBd g3 | gfg a3 | aBc (e2d) |\
B3 cBc | dBd g3 | fga dba | g3- g2z |]
ded dfg | a3- aBc | ded dga | b3- b2b |\
baa abc' | d'ff fg^g | aAA Afe | d3 "D.C."Tc3 !segno!|]
K: C=f
G3 Gcd | e2d c2A | G3 Gcd | (e2c) d3 |\
A3 Ade | f2e d2c | cBA GAB | ceg "^D.C."c'3 !segno!|]
% - - - - - - - - - - - - - - - - - - - - - - - - -

%%sep 1 1 500
%%sep 1 1 500

